<?xml version="1.0" encoding="UTF-8"?>
<map version="1.10" tiledversion="1.11.2" orientation="orthogonal" renderorder="right-down" width="32" height="25" tilewidth="16" tileheight="16" infinite="0" nextlayerid="4" nextobjectid="1">
 <tileset firstgid="1" name="Dungeon_Tileset" tilewidth="16" tileheight="16" tilecount="100" columns="10">
  <image source="Dungeon_Tileset.png" width="160" height="160"/>
 </tileset>
 <layer id="1" name="Floor" width="32" height="25">
  <data encoding="csv">
79,79,79,79,79,79,79,79,79,79,79,79,79,79,79,79,79,79,79,79,79,79,79,79,79,79,79,79,79,79,79,79,
79,79,79,79,79,79,79,79,79,79,79,79,79,79,79,79,79,79,79,79,79,79,79,79,79,79,79,79,79,79,79,79,
79,79,79,79,79,79,79,79,79,79,79,79,79,79,79,79,79,79,79,79,79,79,79,79,79,79,79,79,79,79,79,79,
79,79,79,79,79,79,79,79,79,79,79,79,80,80,80,80,79,79,80,80,80,80,80,80,80,80,80,80,79,79,79,79,
79,79,79,80,80,80,80,80,80,80,79,79,80,80,80,80,79,79,80,80,80,80,80,80,80,80,80,80,79,79,79,79,
79,79,79,80,80,80,80,80,80,80,79,79,80,80,80,80,79,79,80,80,80,80,80,80,80,80,80,80,79,79,79,79,
79,79,79,80,80,80,80,80,80,80,79,79,80,80,80,80,79,79,79,79,80,80,79,79,79,79,79,79,79,79,79,79,
79,79,79,79,80,80,79,79,80,80,80,80,80,80,80,80,79,79,79,79,80,80,79,79,79,79,79,79,79,79,79,79,
79,79,79,79,80,80,79,79,80,80,80,80,80,80,80,80,80,80,80,80,80,80,80,80,80,80,80,80,79,79,79,79,
79,79,79,79,80,80,79,79,79,79,79,79,80,80,80,80,80,80,80,80,80,80,80,80,80,80,80,80,79,79,79,79,
79,79,79,79,80,80,79,79,79,79,79,79,79,80,80,79,79,80,80,80,80,80,80,80,80,80,80,80,79,79,79,79,
79,79,79,79,80,80,79,79,79,79,79,79,79,80,80,79,79,80,80,80,80,79,79,79,80,80,79,79,79,79,79,79,
79,79,79,79,80,80,80,80,80,80,80,79,79,80,80,79,79,80,80,80,80,79,79,79,80,80,79,79,79,79,79,79,
79,79,79,79,80,80,80,80,80,80,80,79,79,80,80,79,79,80,80,80,80,79,79,80,80,80,80,80,79,79,79,79,
79,79,79,79,80,80,80,80,80,80,80,80,80,80,80,80,80,80,80,80,80,79,79,80,80,80,80,80,79,79,79,79,
79,79,79,79,80,80,80,80,80,80,80,80,80,80,80,80,80,80,80,80,80,79,79,80,80,80,80,80,79,79,79,79,
79,79,79,79,79,80,80,79,79,79,79,79,79,80,80,79,79,80,80,80,80,79,79,79,79,80,80,79,79,79,79,79,
79,79,79,79,79,80,80,79,79,79,79,79,79,80,80,79,79,79,79,80,80,79,79,79,79,80,80,79,79,79,79,79,
79,79,79,79,80,80,80,80,80,80,79,79,79,80,80,79,79,79,79,80,80,79,79,79,79,80,80,79,79,79,79,79,
79,79,79,79,80,80,80,80,80,80,80,80,80,80,80,80,80,80,80,80,80,80,80,80,80,80,80,80,79,79,79,79,
79,79,79,79,80,80,80,80,80,80,80,80,80,80,80,80,80,80,80,80,80,80,80,80,80,80,80,80,79,79,79,79,
79,79,79,79,80,80,80,80,80,80,79,79,79,79,79,79,79,79,80,80,80,80,80,80,80,80,80,80,79,79,79,79,
79,79,79,79,79,79,79,79,79,79,79,79,79,79,79,79,79,79,79,79,79,79,79,79,79,79,79,79,79,79,79,79,
79,79,79,79,79,79,79,79,79,79,79,79,79,79,79,79,79,79,79,79,79,79,79,79,79,79,79,79,79,79,79,79,
79,79,79,79,79,79,79,79,79,79,79,79,79,79,79,79,79,79,79,79,79,79,79,79,79,79,79,79,79,79,79,79
</data>
 </layer>
 <layer id="2" name="Walls" width="32" height="25">
  <data encoding="csv">
0,0,0,0,0,0,0,0,0,0,0,0,0,0,0,0,0,0,0,0,0,0,0,0,0,0,0,0,0,0,0,0,
0,0,0,0,0,0,0,0,0,0,0,0,0,0,0,0,0,0,0,0,0,0,0,0,0,0,0,0,0,0,0,0,
0,0,0,0,0,0,0,0,0,0,0,11,2,2,2,2,36,31,2,2,2,2,2,2,2,2,2,2,16,0,0,0,
0,0,11,2,2,2,2,2,2,2,16,11,0,0,0,0,36,31,0,0,0,0,0,0,0,0,0,0,16,0,0,0,
0,0,11,0,0,0,0,0,0,0,16,11,0,0,0,0,36,31,0,0,0,0,0,0,0,0,0,0,16,0,0,0,
0,0,11,0,0,0,0,0,0,0,16,11,0,0,0,0,36,31,0,0,0,0,0,0,0,0,0,0,16,0,0,0,
0,0,11,0,0,0,0,0,0,0,2,2,0,0,0,0,36,41,52,54,0,0,55,52,52,52,52,52,46,0,0,0,
0,0,41,56,0,0,51,54,0,0,0,0,0,0,0,0,5,3,3,5,0,0,4,3,3,3,3,3,16,0,0,0,
0,0,0,11,0,0,16,11,0,0,0,0,0,0,0,0,0,0,0,0,0,0,0,0,0,0,0,0,16,0,0,0,
0,0,0,11,0,0,16,41,42,42,42,54,0,0,0,0,0,0,0,0,0,0,0,0,0,0,0,0,16,0,0,0,
0,0,0,11,0,0,16,0,0,0,0,41,56,0,0,51,56,0,0,0,0,0,0,0,0,0,0,0,16,0,0,0,
0,0,0,11,0,0,2,2,2,2,2,16,1,0,0,16,1,0,0,0,0,51,42,56,0,0,51,44,46,0,0,0,
0,0,0,11,0,0,0,0,0,0,0,16,1,0,0,16,1,0,0,0,0,16,1,2,0,0,2,2,16,0,0,0,
0,0,0,11,0,0,0,0,0,0,0,2,2,0,0,2,2,0,0,0,0,16,1,0,0,0,0,0,16,0,0,0,
0,0,0,11,0,0,0,0,0,0,0,0,0,0,0,0,0,0,0,0,0,16,1,0,0,0,0,0,16,0,0,0,
0,0,0,11,0,0,0,0,0,0,0,0,0,0,0,0,0,0,0,0,0,16,1,0,0,0,0,0,16,0,0,0,
0,0,0,41,56,0,0,51,42,42,42,42,54,0,0,51,54,0,0,0,0,16,41,43,56,0,0,51,46,0,0,0,
0,0,0,11,2,0,0,3,3,3,16,0,1,0,0,16,41,42,54,0,0,16,0,0,31,0,0,16,0,0,0,0,
0,0,0,11,0,0,0,0,0,0,2,4,2,0,0,2,2,2,2,0,0,2,2,2,2,0,0,2,16,0,0,0,
0,0,0,11,0,0,0,0,0,0,0,0,0,0,0,0,0,0,0,0,0,0,0,0,0,0,0,0,16,0,0,0,
0,0,0,11,0,0,0,0,0,0,0,0,0,0,0,0,0,0,0,0,0,0,0,0,0,0,0,0,16,0,0,0,
0,0,0,11,0,0,0,0,0,0,51,52,52,52,52,52,52,52,54,0,0,0,0,0,0,0,0,0,16,0,0,0,
0,0,0,41,43,43,43,43,43,43,46,0,0,0,0,0,0,0,41,43,43,43,43,43,43,43,43,43,46,0,0,0,
0,0,0,0,0,0,0,0,0,0,0,0,0,0,0,0,0,0,0,0,0,0,0,0,0,0,0,0,0,0,0,0,
0,0,0,0,0,0,0,0,0,0,0,0,0,0,0,0,0,0,0,0,0,0,0,0,0,0,0,0,0,0,0,0
</data>
 </layer>
 <layer id="3" name="Objects" width="32" height="25" visible="0">
  <data encoding="csv">
0,0,0,0,0,0,0,0,0,0,0,0,0,0,0,0,0,0,0,0,0,0,0,0,0,0,0,0,0,0,0,0,
0,0,0,0,0,0,0,0,0,0,0,0,0,0,0,0,0,0,0,0,0,0,0,0,0,0,0,0,0,0,0,0,
0,0,0,0,0,0,0,0,0,0,0,0,0,0,0,0,0,0,0,0,0,0,0,0,0,0,0,0,0,0,0,0,
0,0,0,0,0,0,0,0,0,0,0,0,0,0,0,0,0,0,0,0,0,0,0,0,0,0,0,0,0,0,0,0,
0,0,0,0,0,0,0,0,0,0,0,0,0,0,0,0,0,0,0,0,0,0,0,0,0,0,0,0,0,0,0,0,
0,0,0,0,0,69,85,0,88,0,0,0,0,0,0,0,0,0,0,0,0,0,0,0,0,0,0,0,0,0,0,0,
0,0,0,0,0,0,0,0,0,0,0,0,0,0,0,0,0,0,0,0,0,0,0,0,0,0,0,0,0,0,0,0,
0,0,0,0,0,92,0,0,0,0,0,0,0,0,0,0,0,0,0,0,0,0,0,0,0,0,0,0,0,0,0,0,
0,0,0,0,0,0,0,0,0,0,0,0,0,0,0,0,0,0,0,0,0,0,0,0,0,0,0,0,0,0,0,0,
0,0,0,0,0,0,0,0,78,0,0,0,0,0,0,0,0,0,0,0,0,0,0,0,0,0,0,0,0,0,0,0,
0,0,0,0,0,0,0,0,0,0,0,0,0,0,0,0,0,0,0,0,0,0,0,0,0,0,0,0,0,0,0,0,
0,0,0,0,0,0,0,0,0,0,0,0,0,0,0,0,0,0,0,0,0,0,0,0,0,0,0,0,0,0,0,0,
0,0,0,0,0,0,0,0,0,0,0,0,0,0,0,0,0,0,0,0,0,0,0,0,0,0,0,0,0,0,0,0,
0,0,0,0,0,0,0,0,0,0,0,0,0,0,0,0,0,0,0,0,0,0,0,0,0,0,0,0,0,0,0,0,
0,0,0,0,0,0,0,0,0,0,0,0,0,0,0,0,0,0,0,0,0,0,0,0,0,0,0,0,0,0,0,0,
0,0,0,0,0,0,0,0,0,0,0,0,0,0,0,0,0,0,0,0,0,0,0,0,0,0,0,0,0,0,0,0,
0,0,0,0,0,0,0,0,0,0,0,0,0,0,0,0,0,0,0,0,0,0,0,0,0,0,0,0,0,0,0,0,
0,0,0,0,0,0,0,0,0,0,0,0,0,0,0,0,0,0,0,0,0,0,0,0,0,0,0,0,0,0,0,0,
0,0,0,0,0,0,0,0,0,0,0,0,0,0,0,0,0,0,0,0,0,0,0,0,0,0,0,0,0,0,0,0,
0,0,0,0,0,0,0,0,0,0,0,0,0,0,0,0,0,0,0,0,0,0,0,0,0,0,0,0,0,0,0,0,
0,0,0,0,0,0,0,0,0,0,0,0,0,0,0,0,0,0,0,0,0,0,0,0,0,0,0,0,0,0,0,0,
0,0,0,0,0,0,0,0,0,0,0,0,0,0,0,0,0,0,0,0,0,0,0,0,0,0,0,0,0,0,0,0,
0,0,0,0,0,0,0,0,0,0,0,0,0,0,0,0,0,0,0,0,0,0,0,0,0,0,0,0,0,0,0,0,
0,0,0,0,0,0,0,0,0,0,0,0,0,0,0,0,0,0,0,0,0,0,0,0,0,0,0,0,0,0,0,0,
0,0,0,0,0,0,0,0,0,0,0,0,0,0,0,0,0,0,0,0,0,0,0,0,0,0,0,0,0,0,0,0
</data>
 </layer>
</map>
